; generated by PrusaSlicer 2.0.0+win64 on 2019-11-09 at 12:49:50

; 

; external perimeters extrusion width = 0.45mm
; perimeters extrusion width = 0.45mm
; infill extrusion width = 0.45mm
; solid infill extrusion width = 0.45mm
; top infill extrusion width = 0.40mm
; first layer extrusion width = 0.42mm

M73 P0 R207
M73 Q0 S213
M201 X1000 Y1000 Z1000 E5000 ; sets maximum accelerations, mm/sec^2
M203 X200 Y200 Z12 E120 ; sets maximum feedrates, mm/sec
M204 P1250 R1250 T1250 ; sets acceleration (P, T) and retract acceleration (R), mm/sec^2
M205 X8.00 Y8.00 Z0.40 E1.50 ; sets the jerk limits, mm/sec
M205 S0 T0 ; sets the minimum extruding and travel feed rate, mm/sec
M107
M115 U3.8.0 ; tell printer latest fw version
G90 ; use absolute coordinates
M83 ; extruder relative mode
M104 S215 ; set extruder temp
M140 S60 ; set bed temp
M190 S60 ; wait for bed temp
M109 S215 ; wait for extruder temp
G28 W ; home all without mesh bed level
G80 ; mesh bed leveling
G1 Y-3.0 F1000.0 ; go outside print area
G92 E0.0
G1 X60.0 E9.0 F1000.0 ; intro line
M73 Q0 S213
M73 P0 R207
G1 X100.0 E12.5 F1000.0 ; intro line
G92 E0.0
M221 S95
M900 K30 ; Filament gcode
G21 ; set units to millimeters
G90 ; use absolute coordinates
M83 ; use relative distances for extrusion
;BEFORE_LAYER_CHANGE
G92 E0.0
;0.2


G1 E-0.80000 F2100.00000
G1 Z0.600 F10800.000
;AFTER_LAYER_CHANGE
;0.2
G1 X76.927 Y65.549
G1 Z0.200
G1 E0.80000 F2100.00000
M204 S1000
G1 F1200
G1 X78.920 Y63.238 E0.09571
G1 X81.025 Y61.027 E0.09570
G1 X83.236 Y58.922 E0.09571
G1 X85.547 Y56.928 E0.09570
G1 X87.953 Y55.050 E0.09571
G1 X90.449 Y53.293 E0.09570
G1 X93.028 Y51.660 E0.09570
G1 X95.683 Y50.155 E0.09570
G1 X98.410 Y48.783 E0.09570
G1 X101.200 Y47.546 E0.09571
G1 X104.048 Y46.447 E0.09570
G1 X106.946 Y45.490 E0.09570
G1 X109.888 Y44.675 E0.09571
G1 X112.866 Y44.007 E0.09570
G1 X115.874 Y43.485 E0.09570
G1 X118.903 Y43.111 E0.09571
G1 X121.947 Y42.886 E0.09570
G1 X125.002 Y42.811 E0.09582
G1 X128.050 Y42.886 E0.09559
G1 X131.094 Y43.111 E0.09571
G1 X134.124 Y43.484 E0.09570
G1 X137.131 Y44.006 E0.09571
G1 X140.109 Y44.675 E0.09570
G1 X143.051 Y45.489 E0.09571
G1 X145.950 Y46.446 E0.09570
G1 X148.797 Y47.545 E0.09571
G1 X151.588 Y48.782 E0.09570
G1 X154.314 Y50.154 E0.09571
G1 X156.970 Y51.658 E0.09570
G1 X159.549 Y53.291 E0.09571
G1 X162.045 Y55.049 E0.09570
G1 X164.451 Y56.927 E0.09570
G1 X166.762 Y58.920 E0.09571
G1 X168.973 Y61.025 E0.09570
G1 X171.078 Y63.236 E0.09571
G1 X173.072 Y65.547 E0.09570
G1 X174.950 Y67.953 E0.09570
G1 X176.707 Y70.449 E0.09570
G1 X178.340 Y73.028 E0.09570
G1 X179.845 Y75.683 E0.09570
G1 X181.217 Y78.410 E0.09570
G1 X182.454 Y81.200 E0.09570
G1 X183.553 Y84.048 E0.09571
G1 X184.510 Y86.946 E0.09570
G1 X185.325 Y89.888 E0.09571
G1 X185.993 Y92.866 E0.09570
G1 X186.515 Y95.874 E0.09570
G1 X186.889 Y98.903 E0.09570
G1 X187.114 Y101.947 E0.09570
G1 X187.189 Y104.999 E0.09571
G1 X187.114 Y108.050 E0.09570
G1 X186.889 Y111.094 E0.09571
G1 X186.516 Y114.124 E0.09570
G1 X185.994 Y117.131 E0.09570
G1 X185.325 Y120.109 E0.09571
G1 X184.511 Y123.051 E0.09571
G1 X183.554 Y125.949 E0.09570
G1 X182.455 Y128.797 E0.09571
G1 X181.218 Y131.588 E0.09570
G1 X179.846 Y134.314 E0.09571
G1 X178.342 Y136.970 E0.09570
G1 X176.709 Y139.549 E0.09570
G1 X174.951 Y142.045 E0.09571
G1 X173.073 Y144.451 E0.09570
G1 X171.080 Y146.762 E0.09571
G1 X168.975 Y148.973 E0.09570
G1 X166.764 Y151.078 E0.09571
G1 X164.453 Y153.072 E0.09570
G1 X162.047 Y154.950 E0.09571
G1 X159.551 Y156.707 E0.09570
G1 X156.972 Y158.340 E0.09570
G1 X154.317 Y159.845 E0.09570
G1 X151.590 Y161.217 E0.09571
G1 X148.800 Y162.454 E0.09570
G1 X145.952 Y163.553 E0.09571
G1 X143.054 Y164.510 E0.09570
G1 X140.112 Y165.325 E0.09571
G1 X137.134 Y165.993 E0.09570
G1 X134.126 Y166.515 E0.09571
G1 X131.097 Y166.889 E0.09570
G1 X128.053 Y167.114 E0.09570
G1 X125.001 Y167.189 E0.09571
G1 X121.950 Y167.114 E0.09570
G1 X118.906 Y166.889 E0.09571
G1 X115.876 Y166.516 E0.09570
G1 X112.869 Y165.994 E0.09570
G1 X109.891 Y165.325 E0.09571
G1 X106.949 Y164.511 E0.09571
G1 X104.051 Y163.554 E0.09570
G1 X101.203 Y162.455 E0.09571
G1 X98.412 Y161.218 E0.09570
G1 X95.686 Y159.846 E0.09571
G1 X93.030 Y158.342 E0.09570
G1 X90.451 Y156.709 E0.09570
G1 X87.955 Y154.951 E0.09571
G1 X85.549 Y153.073 E0.09570
G1 X83.238 Y151.080 E0.09571
G1 X81.027 Y148.975 E0.09570
G1 X78.922 Y146.764 E0.09571
G1 X76.928 Y144.453 E0.09570
G1 X75.050 Y142.047 E0.09571
G1 X73.293 Y139.551 E0.09570
G1 X71.660 Y136.972 E0.09570
G1 X70.155 Y134.317 E0.09570
G1 X68.783 Y131.590 E0.09570
G1 X67.546 Y128.800 E0.09571
G1 X66.447 Y125.952 E0.09570
G1 X65.490 Y123.054 E0.09570
G1 X64.675 Y120.112 E0.09571
G1 X64.007 Y117.134 E0.09570
G1 X63.485 Y114.126 E0.09570
G1 X63.111 Y111.097 E0.09571
G1 X62.886 Y108.053 E0.09570
G1 X62.811 Y105.001 E0.09570
G1 X62.886 Y101.950 E0.09570
G1 X63.111 Y98.906 E0.09571
G1 X63.484 Y95.876 E0.09570
G1 X64.006 Y92.869 E0.09571
G1 X64.675 Y89.891 E0.09570
G1 X65.489 Y86.949 E0.09571
G1 X66.446 Y84.050 E0.09570
G1 X67.545 Y81.203 E0.09571
G1 X68.782 Y78.412 E0.09570
G1 X70.154 Y75.686 E0.09571
G1 X71.658 Y73.030 E0.09570
G1 X73.291 Y70.451 E0.09570
G1 X75.049 Y67.955 E0.09570
G1 X76.890 Y65.596 E0.09382
G1 F8640
G1 X78.920 Y63.238 E-0.71864
G1 X79.044 Y63.108 E-0.04136
G1 E-0.04000 F2100.00000
G1 Z0.800 F10800.000
G1 X111.516 Y152.071
G1 Z0.200
G1 E0.80000 F2100.00000
G1 F1200
G1 X111.766 Y151.989 E0.00824
G1 X112.027 Y151.957 E0.00827
G1 X112.288 Y151.976 E0.00820
G1 X112.541 Y152.046 E0.00823
G1 X112.776 Y152.164 E0.00824
G1 X112.983 Y152.326 E0.00824
G1 X113.155 Y152.525 E0.00824
G1 X113.284 Y152.753 E0.00824
G1 X113.366 Y153.003 E0.00824
G1 X113.399 Y153.263 E0.00824
G1 X113.379 Y153.525 E0.00824
G1 X113.309 Y153.779 E0.00824
G1 X113.191 Y154.013 E0.00824
G1 X113.029 Y154.220 E0.00824
G1 X112.831 Y154.392 E0.00824
G1 X112.602 Y154.521 E0.00824
G1 X112.353 Y154.604 E0.00824
G1 X112.092 Y154.636 E0.00824
G1 X111.830 Y154.616 E0.00824
G1 X111.577 Y154.546 E0.00824
G1 X111.342 Y154.428 E0.00824
G1 X111.135 Y154.267 E0.00824
G1 X110.964 Y154.068 E0.00824
G1 X110.834 Y153.839 E0.00824
G1 X110.752 Y153.590 E0.00824
G1 X110.720 Y153.329 E0.00824
G1 X110.739 Y153.067 E0.00824
G1 X110.809 Y152.814 E0.00824
G1 X110.927 Y152.579 E0.00824
G1 X111.089 Y152.372 E0.00824
G1 X111.288 Y152.201 E0.00824
G1 X111.464 Y152.101 E0.00635
G1 X111.670 Y152.418 F10800.000
G1 F1200
G1 X111.849 Y152.359 E0.00591
G1 X112.037 Y152.336 E0.00594
G1 X112.223 Y152.349 E0.00588
G1 X112.405 Y152.400 E0.00590
G1 X112.573 Y152.484 E0.00591
G1 X112.722 Y152.600 E0.00591
G1 X112.845 Y152.743 E0.00591
G1 X112.938 Y152.907 E0.00591
G1 X112.997 Y153.086 E0.00591
G1 X113.020 Y153.273 E0.00591
G1 X113.006 Y153.461 E0.00591
G1 X112.956 Y153.642 E0.00591
G1 X112.871 Y153.810 E0.00591
G1 X112.755 Y153.959 E0.00591
G1 X112.612 Y154.082 E0.00591
G1 X112.448 Y154.175 E0.00591
G1 X112.270 Y154.234 E0.00591
G1 X112.083 Y154.257 E0.00591
G1 X111.895 Y154.243 E0.00591
G1 X111.713 Y154.193 E0.00591
G1 X111.545 Y154.108 E0.00591
G1 X111.396 Y153.992 E0.00591
G1 X111.273 Y153.850 E0.00591
G1 X111.180 Y153.686 E0.00591
G1 X111.121 Y153.507 E0.00591
G1 X111.098 Y153.320 E0.00591
G1 X111.112 Y153.132 E0.00591
G1 X111.162 Y152.950 E0.00591
G1 X111.247 Y152.782 E0.00591
G1 X111.363 Y152.634 E0.00591
G1 X111.506 Y152.511 E0.00591
G1 X111.617 Y152.447 E0.00403
G1 X111.690 Y152.230 F10800.000
G1 F8640
G1 X111.849 Y152.359 E-0.05717
G1 X112.037 Y152.336 E-0.04372
G1 X112.223 Y152.349 E-0.04327
G1 X112.405 Y152.400 E-0.04349
G1 X112.573 Y152.484 E-0.04350
G1 X112.722 Y152.600 E-0.04350
G1 X112.845 Y152.743 E-0.04350
G1 X112.938 Y152.907 E-0.04350
G1 X112.997 Y153.086 E-0.04350
G1 X113.020 Y153.273 E-0.04350
G1 X113.006 Y153.461 E-0.04350
G1 X112.956 Y153.642 E-0.04350
G1 X112.871 Y153.810 E-0.04350
G1 X112.755 Y153.959 E-0.04350
G1 X112.612 Y154.082 E-0.04350
G1 X112.448 Y154.175 E-0.04350
G1 X112.270 Y154.234 E-0.04350
G1 X112.240 Y154.238 E-0.00684
G1 E-0.04000 F2100.00000
G1 Z0.800 F10800.000
G1 X136.602 Y153.340
G1 Z0.200
G1 E0.80000 F2100.00000
G1 F1200
G1 X136.619 Y153.078 E0.00824
G1 X136.687 Y152.824 E0.00824
G1 X136.803 Y152.589 E0.00824
G1 X136.963 Y152.380 E0.00824
G1 X137.160 Y152.207 E0.00824
G1 X137.388 Y152.076 E0.00824
G1 X137.637 Y151.991 E0.00824
G1 X137.898 Y151.957 E0.00827
G1 X138.159 Y151.974 E0.00820
G1 X138.413 Y152.042 E0.00823
G1 X138.649 Y152.158 E0.00824
G1 X138.857 Y152.318 E0.00824
G1 X139.030 Y152.516 E0.00824
G1 X139.161 Y152.743 E0.00824
G1 X139.246 Y152.992 E0.00824
G1 X139.280 Y153.252 E0.00824
G1 X139.263 Y153.515 E0.00824
G1 X139.195 Y153.768 E0.00824
G1 X139.079 Y154.004 E0.00823
G1 X138.919 Y154.212 E0.00824
G1 X138.721 Y154.385 E0.00824
G1 X138.494 Y154.517 E0.00824
G1 X138.245 Y154.601 E0.00824
G1 X137.985 Y154.635 E0.00824
G1 X137.723 Y154.618 E0.00824
G1 X137.469 Y154.550 E0.00824
G1 X137.233 Y154.434 E0.00824
G1 X137.025 Y154.274 E0.00824
G1 X136.852 Y154.077 E0.00824
G1 X136.720 Y153.849 E0.00824
G1 X136.636 Y153.601 E0.00823
G1 X136.610 Y153.400 E0.00636
G1 X136.980 Y153.328 F10800.000
G1 F1200
G1 X136.993 Y153.140 E0.00591
G1 X137.042 Y152.958 E0.00591
G1 X137.125 Y152.789 E0.00591
G1 X137.240 Y152.639 E0.00591
G1 X137.381 Y152.515 E0.00591
G1 X137.544 Y152.421 E0.00591
G1 X137.723 Y152.360 E0.00591
G1 X137.911 Y152.336 E0.00594
G1 X138.098 Y152.348 E0.00588
G1 X138.279 Y152.397 E0.00590
G1 X138.448 Y152.480 E0.00591
G1 X138.598 Y152.595 E0.00591
G1 X138.722 Y152.737 E0.00591
G1 X138.816 Y152.900 E0.00591
G1 X138.877 Y153.078 E0.00591
G1 X138.901 Y153.265 E0.00591
G1 X138.889 Y153.453 E0.00591
G1 X138.840 Y153.635 E0.00591
G1 X138.757 Y153.804 E0.00591
G1 X138.642 Y153.953 E0.00591
G1 X138.501 Y154.077 E0.00591
G1 X138.338 Y154.172 E0.00591
G1 X138.159 Y154.232 E0.00591
G1 X137.972 Y154.257 E0.00591
G1 X137.784 Y154.244 E0.00591
G1 X137.602 Y154.196 E0.00591
G1 X137.433 Y154.112 E0.00591
G1 X137.284 Y153.998 E0.00591
G1 X137.160 Y153.856 E0.00591
G1 X137.066 Y153.693 E0.00591
G1 X137.005 Y153.515 E0.00591
G1 X136.988 Y153.387 E0.00403
G1 X136.814 Y153.239 F10800.000
G1 F8640
G1 X136.993 Y153.140 E-0.05715
G1 X137.042 Y152.958 E-0.04350
G1 X137.125 Y152.789 E-0.04350
G1 X137.240 Y152.639 E-0.04350
G1 X137.381 Y152.515 E-0.04350
G1 X137.544 Y152.421 E-0.04350
G1 X137.723 Y152.360 E-0.04352
G1 X137.911 Y152.336 E-0.04372
G1 X138.098 Y152.348 E-0.04327
G1 X138.279 Y152.397 E-0.04349
G1 X138.448 Y152.480 E-0.04350
G1 X138.598 Y152.595 E-0.04350
G1 X138.722 Y152.737 E-0.04350
G1 X138.816 Y152.900 E-0.04350
G1 X138.877 Y153.078 E-0.04350
G1 X138.901 Y153.265 E-0.04350
G1 X138.889 Y153.453 E-0.04350
G1 X138.881 Y153.481 E-0.00685
G1 E-0.04000 F2100.00000
G1 Z0.800 F10800.000
G1 X159.210 Y141.040
G1 Z0.200
G1 E0.80000 F2100.00000
G1 F1200
G1 X159.126 Y140.888 E0.00543
G1 X159.046 Y140.638 E0.00824
G1 X159.016 Y140.377 E0.00824
G1 X159.037 Y140.115 E0.00824
G1 X159.109 Y139.863 E0.00824
G1 X159.229 Y139.629 E0.00824
G1 X159.392 Y139.424 E0.00824
G1 X159.593 Y139.254 E0.00824
G1 X159.822 Y139.126 E0.00824
G1 X160.073 Y139.046 E0.00824
G1 X160.335 Y139.016 E0.00827
G1 X160.595 Y139.037 E0.00820
G1 X160.848 Y139.109 E0.00823
G1 X161.081 Y139.229 E0.00824
G1 X161.287 Y139.392 E0.00823
G1 X161.457 Y139.593 E0.00824
G1 X161.585 Y139.822 E0.00824
G1 X161.665 Y140.072 E0.00824
G1 X161.695 Y140.333 E0.00824
G1 X161.674 Y140.595 E0.00824
G1 X161.601 Y140.848 E0.00824
G1 X161.481 Y141.081 E0.00824
G1 X161.318 Y141.287 E0.00823
G1 X161.118 Y141.457 E0.00824
G1 X160.888 Y141.585 E0.00824
G1 X160.638 Y141.665 E0.00824
G1 X160.377 Y141.695 E0.00824
G1 X160.115 Y141.674 E0.00824
G1 X159.863 Y141.601 E0.00824
G1 X159.629 Y141.481 E0.00824
G1 X159.424 Y141.318 E0.00824
G1 X159.239 Y141.092 E0.00914
G1 X159.565 Y140.902 F10800.000
G1 F1200
G1 X159.474 Y140.738 E0.00591
G1 X159.416 Y140.558 E0.00591
G1 X159.394 Y140.371 E0.00591
G1 X159.410 Y140.183 E0.00591
G1 X159.462 Y140.002 E0.00591
G1 X159.548 Y139.835 E0.00591
G1 X159.665 Y139.687 E0.00591
G1 X159.808 Y139.565 E0.00591
G1 X159.973 Y139.474 E0.00591
G1 X160.153 Y139.416 E0.00591
G1 X160.341 Y139.394 E0.00594
G1 X160.527 Y139.410 E0.00588
G1 X160.709 Y139.462 E0.00591
G1 X160.876 Y139.548 E0.00591
G1 X161.024 Y139.665 E0.00591
G1 X161.146 Y139.808 E0.00591
G1 X161.237 Y139.973 E0.00591
G1 X161.295 Y140.152 E0.00591
G1 X161.316 Y140.340 E0.00591
G1 X161.301 Y140.527 E0.00591
G1 X161.249 Y140.709 E0.00591
G1 X161.163 Y140.876 E0.00591
G1 X161.046 Y141.024 E0.00591
G1 X160.902 Y141.146 E0.00591
G1 X160.738 Y141.237 E0.00591
G1 X160.558 Y141.295 E0.00591
G1 X160.371 Y141.316 E0.00591
G1 X160.183 Y141.301 E0.00591
G1 X160.002 Y141.249 E0.00591
G1 X159.835 Y141.163 E0.00591
G1 X159.687 Y141.046 E0.00591
G1 X159.604 Y140.948 E0.00403
G1 X159.377 Y140.918 F10800.000
G1 F8640
G1 X159.474 Y140.738 E-0.05715
G1 X159.416 Y140.558 E-0.04350
G1 X159.394 Y140.371 E-0.04350
G1 X159.410 Y140.183 E-0.04350
G1 X159.462 Y140.002 E-0.04350
G1 X159.548 Y139.835 E-0.04350
G1 X159.665 Y139.687 E-0.04350
G1 X159.808 Y139.565 E-0.04350
G1 X159.973 Y139.474 E-0.04350
G1 X160.153 Y139.416 E-0.04352
G1 X160.341 Y139.394 E-0.04372
G1 X160.527 Y139.410 E-0.04327
G1 X160.709 Y139.462 E-0.04349
G1 X160.876 Y139.548 E-0.04350
G1 X161.024 Y139.665 E-0.04350
G1 X161.146 Y139.808 E-0.04350
G1 X161.237 Y139.973 E-0.04350
G1 X161.246 Y140.001 E-0.00685
G1 E-0.04000 F2100.00000
G1 Z0.800 F10800.000
G1 X172.579 Y119.073
G1 Z0.200
G1 E0.80000 F2100.00000
G1 F1200
G1 X172.372 Y118.911 E0.00824
G1 X172.201 Y118.712 E0.00824
G1 X172.071 Y118.484 E0.00824
G1 X171.989 Y118.235 E0.00824
G1 X171.957 Y117.974 E0.00824
G1 X171.976 Y117.712 E0.00824
G1 X172.046 Y117.459 E0.00824
G1 X172.164 Y117.224 E0.00824
G1 X172.326 Y117.017 E0.00824
G1 X172.525 Y116.845 E0.00824
G1 X172.753 Y116.716 E0.00824
G1 X173.003 Y116.634 E0.00824
G1 X173.265 Y116.601 E0.00827
G1 X173.526 Y116.621 E0.00820
G1 X173.779 Y116.691 E0.00823
G1 X174.013 Y116.809 E0.00824
G1 X174.220 Y116.971 E0.00824
G1 X174.392 Y117.169 E0.00824
G1 X174.521 Y117.398 E0.00824
G1 X174.604 Y117.647 E0.00824
G1 X174.636 Y117.908 E0.00824
G1 X174.616 Y118.170 E0.00824
G1 X174.546 Y118.423 E0.00824
G1 X174.428 Y118.658 E0.00824
G1 X174.267 Y118.865 E0.00824
G1 X174.068 Y119.036 E0.00824
G1 X173.839 Y119.166 E0.00824
G1 X173.590 Y119.248 E0.00824
G1 X173.329 Y119.280 E0.00824
G1 X173.067 Y119.261 E0.00824
G1 X172.814 Y119.191 E0.00824
G1 X172.633 Y119.100 E0.00635
G1 X172.782 Y118.753 F10800.000
G1 F1200
G1 X172.634 Y118.637 E0.00591
G1 X172.511 Y118.494 E0.00591
G1 X172.418 Y118.330 E0.00591
G1 X172.359 Y118.152 E0.00591
G1 X172.336 Y117.965 E0.00591
G1 X172.349 Y117.777 E0.00591
G1 X172.400 Y117.595 E0.00591
G1 X172.484 Y117.427 E0.00591
G1 X172.600 Y117.278 E0.00591
G1 X172.743 Y117.155 E0.00591
G1 X172.907 Y117.062 E0.00591
G1 X173.086 Y117.003 E0.00591
G1 X173.274 Y116.980 E0.00594
G1 X173.461 Y116.994 E0.00588
G1 X173.642 Y117.044 E0.00590
G1 X173.810 Y117.129 E0.00591
G1 X173.959 Y117.245 E0.00591
G1 X174.082 Y117.388 E0.00591
G1 X174.175 Y117.552 E0.00591
G1 X174.234 Y117.730 E0.00591
G1 X174.257 Y117.917 E0.00591
G1 X174.243 Y118.105 E0.00591
G1 X174.193 Y118.287 E0.00591
G1 X174.108 Y118.455 E0.00591
G1 X173.992 Y118.604 E0.00591
G1 X173.850 Y118.727 E0.00591
G1 X173.686 Y118.820 E0.00591
G1 X173.507 Y118.879 E0.00591
G1 X173.320 Y118.902 E0.00591
G1 X173.132 Y118.888 E0.00591
G1 X172.950 Y118.838 E0.00591
G1 X172.836 Y118.780 E0.00403
G1 X172.615 Y118.840 F10800.000
G1 F8640
G1 X172.634 Y118.637 E-0.05715
G1 X172.511 Y118.494 E-0.04350
G1 X172.418 Y118.330 E-0.04350
G1 X172.359 Y118.152 E-0.04350
G1 X172.336 Y117.965 E-0.04350
G1 X172.349 Y117.777 E-0.04350
G1 X172.400 Y117.595 E-0.04350
G1 X172.484 Y117.427 E-0.04350
G1 X172.600 Y117.278 E-0.04350
G1 X172.743 Y117.155 E-0.04350
G1 X172.907 Y117.062 E-0.04350
G1 X173.086 Y117.003 E-0.04352
G1 X173.274 Y116.980 E-0.04372
G1 X173.461 Y116.994 E-0.04327
G1 X173.642 Y117.044 E-0.04349
G1 X173.810 Y117.129 E-0.04350
G1 X173.959 Y117.245 E-0.04350
G1 X173.978 Y117.267 E-0.00685
G1 E-0.04000 F2100.00000
G1 Z0.800 F10800.000
G1 X173.340 Y93.398
G1 Z0.200
